!!!!SEGMENT: pl-kk--kk-i-513--007_haser-august-ferdinand--miserere-ecce-enim-veritatem.krn
!!!cenid: 17xx:1847
!!!COM: Häser, August Ferdinand
!!!COM-rismID: pe37240
!!!CDT: 1779/10/15-1844/11/01
!!!CNT: German
!!!OPR: Miserere
!!!OTL: Ecce enim veritatem
!!!OMV: 007
!!!PDT:
!!!AGN: Sacred
!!!SMS-siglum: PL-Kk
!!!SMS-shelfmark: Kk.I.513
!!!SMS-shelfwork: 001-007 M
!!!SMS-variant:
!!!SMS-altvar:
!!!NIFC-rismSourceID: 1001137722
!!!NIFC-rismChildID: 1001138494
!!!NIFC-islandoraID: pl-kk:14834
!!!URL-pdf-islandora: https://repozytorium.nifc.pl/islandora/object/pl-kk%3A14834/datastream/PDF/view
!!!URL-scan: https://polish.musicsources.pl/pl/lokalizacje/galeria/rekopisy/6123 @EN{Scan on Polish Music Sources Website} @PL{Skany w portalu Dziedzictwo Muzyki Polskiej w otwartym dostępie}
!!!ONB-nifc:
!!!AIN: 1 alto 1 bass 1 empty 1 organ 1 soprn 1 tenor
!!!key:
**kern	**kern	**kern	**text	**dynam	**kern	**text	**dynam	**kern	**text	**dynam	**kern	**text	**dynam
*part6	*part5	*part4	*part4	*part4	*part3	*part3	*part3	*part2	*part2	*part2	*part1	*part1	*part1
*staff6	*staff5	*staff4	*staff4	*	*staff3	*staff3	*	*staff2	*staff2	*	*staff1	*staff1	*
*Iempty	*Iorgan	*Ibass	*	*	*Itenor	*	*	*Ialto	*	*	*Isoprn	*	*
*	*I"[Organo]	*I"Basso.	*	*	*I"Tenore.	*	*	*I"Alto	*	*	*I"Soprano.	*	*
*	*I'[org]	*I'B	*	*	*I'T	*	*	*I'A	*	*	*I'S	*	*
*clefF4	*clefG2	*clefF4	*	*	*clefC4	*	*	*clefG2	*	*	*clefG2	*	*
*k[b-]	*k[b-]	*k[b-]	*	*	*k[b-]	*	*	*k[b-]	*	*	*k[b-]	*	*
*F:	*F:	*F:	*	*	*F:	*	*	*F:	*	*	*F:	*	*
*M3/4	*M3/4	*M3/4	*	*	*M3/4	*	*	*M3/4	*	*	*M3/4	*	*
=1	=1	=1	=1	=1	=1	=1	=1	=1	=1	=1	=1	=1	=1
*2\right	*2\right	*2\right	*	*	*2\right	*	*	*	*	*	*2\right	*	*
!LO:TX:t=P:problem=all\right&colon; global	!LO:TX:t=P:problem=all\right&colon; global	!LO:TX:t=P:problem=all\right&colon; global	!	!	!LO:TX:t=P:problem=all\right&colon; global	!	!	!	!	!	!LO:TX:t=P:problem=all\right&colon; global	!	!
!	!	!	!	!	!	!	!	!LO:TX:a:Bi:t=No 7:problem='No 7' znajduje się przed kluczem i oznaczeniem metrum na pięciolinii	!	!	!LO:TX:a:Bi:t=No 7:problem='No 7' znajduje się przed kluczem i oznaczeniem metrum na pięciolinii	!	!
!	!LO:TX:a:Bi:t=N. 7.:problem='N. 7.' znajduje się przed kluczem i oznaczeniem metrum	!LO:TX:a:Bi:t=Tutti No 7:problem='Tutti No 7' znajduje się przed kluczem i oznaczeniem metrum na pięciolinii	!	!	!LO:TX:a:Bi:t=No 7:problem='No 7' znajduje się przed kluczem i oznaczeniem metrum na pięciolinii	!	!	!	!	!	!	!	!
!	!LO:TX:t=P:problem=w źródle brak oznaczenia tempa	!	!	!	!	!	!	!	!	!	!	!	!
!	!	!LO:TX:a:Bi:t=tutti	!	!	!LO:TX:a:Bi:t=tutti	!	!	!LO:TX:a:Bi:t=Tutti	!	!	!LO:TX:a:Bi:t=Tutti	!	!
!	!	!LO:TX:a:Bi:t=Maestoso Strino&colon; il tempo:rj	!	!	!LO:TX:a:Bi:t=Maestoso:rj	!	!	!LO:TX:a:Bi:t=Maestoso Strino il tempo:rj	!	!	!LO:TX:a:Bi:t=Maestoso Strino&colon; il Tempo:rj	!	!
!	!	!	!	!	!LO:HP:a	!	!LO:DY:b:rj	!	!	!LO:HP:a:rj	!	!	!LO:HP:a
2.G 2.C\	2.b- 2.g 2.e\	2.C/	Ec-	<	2.en\	Ec-	p	2.g/	Ec-	<	2.b-\	Ec-	<
=2	=2	=2	=2	=2	=2	=2	=2	=2	=2	=2	=2	=2	=2
!LO:SIC:n=2:s=2.D-:v	!	!	!	!	!	!	!	!	!	!	!	!	!
!	!	!	!	!	!	!	!LO:HP:b	!	!	!	!	!	!
2.G 2.D\	2.b- 2.f\	2.D-X/	-ce	.	2.f\	-ce	<[	2.g/	-ce	.	2.b-\	-ce	.
=3	=3	=3	=3	=3	=3	=3	=3	=3	=3	=3	=3	=3	=3
*	*^	*	*	*	*	*	*	*	*	*	*	*	*
!	!	!	!	!	!	!	!	!LO:DY:b:rj	!	!	!	!	!	!
2.c 2.C\	2.gg 2.ee/	2.b-\	2.C/	e-	.	2.e\	e-	f	2.b-/	e-	.	2.gg\	e-	.
*	*v	*v	*	*	*	*	*	*	*	*	*	*	*	*
=4	=4	=4	=4	=4	=4	=4	=4	=4	=4	=4	=4	=4	=4
2G 2C\	2b- 2e/	2c\	-nim	.	2e\	-nim	.	2g/	-nim	.	2b-/	-nim	.
4r	4r	4r	.	.	4r	.	.	4r	.	.	4r	.	.
=5||	=5||	=5||	=5||	=5||	=5||	=5||	=5||	=5||	=5||	=5||	=5||	=5||	=5||
!	!	!LO:TX:a:Bi:t=Piu moſso	!	!	!LO:TX:a:Bi:t=piu moſso.	!	!	!LO:TX:a:Bi:t=Piu moſso.	!	!	!LO:TX:a:Bi:t=Piu moſso.	!	!LO:DY:a
!	!	!	!	!	!	!	!LO:DY:b:rj	!	!	!LO:DY:a:rj	!	!	!LO:DY:a:rj
4F\	4a 4f 4c/	(>4F\	ve-	.	2c\	ve-	p	(<4f/	ve-	f	(<4a/	ve-	p
4G\	4b- 4e 4c/	4G\)	.	.	.	.	.	4e/)	.	.	4b-/)	.	.
4A\	4cc 4f 4e-X/	4A\	-ri-	.	4f\	-ri-	.	4e-X/	-ri-	.	4cc/	-ri-	.
=6	=6	=6	=6	=6	=6	=6	=6	=6	=6	=6	=6	=6	=6
*	*^	*	*	*	*	*	*	*	*	*	*	*	*
8e-XL 8A\	8cc#X/L	2f\	(>8A\L	-ta-	.	4f\	-ta-	.	8e-X/L	-ta-	.	(>8cc#X\L	-ta-	.
8dJ 8B-\	8dd/J	.	8B-\J)	.	.	.	.	.	8d/J	.	.	8dd\J)	.	.
4d 4B-\	4dd/	.	4B-\	-tem,	.	4f\	-tem	.	4d/	-tem	.	4dd\	-tem	.
8BB-\L	4dd 4f/	8ryy	8BB-/	ve-	.	8d\	ve-	.	8f/	ve-	.	8dd\	ve-	.
8BBn\J	.	8ryy	8BBn/	-ri-	.	8d\	-ri-	.	8f/	-ri-	.	8dd\	-ri-	.
!	!	!	!LO:LB:g=original	!	!	!	!	!	!LO:LB:g=original	!	!	!LO:LB:g=original	!	!
=7	=7	=7	=7	=7	=7	=7	=7	=7	=7	=7	=7	=7	=7	=7
*^	*	*	*	*	*	*	*	*	*	*	*	*	*	*
2G/	2C\	4.g/	4f\	4.C/	-ta-	.	4.c\	-ta-	.	4f/	-ta-	.	4.g/	-ta-	.
.	.	.	8e\	.	.	.	.	.	.	(<8e/	-tem	.	.	.	.
.	.	8dd/L	8e\L	8C/	-tem	.	8e\	-tem	.	8g/)	.	.	8dd\	-tem	.
4G/	8D\L	8cc/	8f\	8D/	di-	.	8f\	di-	.	8g/	di-	.	8cc\	di-	.
.	8E\J	8b-/J	8c\J	8E\	-le-	.	8c\	-le-	.	8g/	-le-	.	8b-\	-le-	.
!LO:LB:g=original	!	!LO:LB:g=original	!	!	!	!	!	!	!	!	!	!	!	!	!
*v	*v	*	*	*	*	*	*	*	*	*	*	*	*	*	*
*	*v	*v	*	*	*	*	*	*	*	*	*	*	*	*
=8	=8	=8	=8	=8	=8	=8	=8	=8	=8	=8	=8	=8	=8
.	8qb- 8qg/	.	.	.	.	.	.	8qg/	.	.	8qb-/	.	.
2c 2F\	2a 2f/	4F\	-xi-	.	4c\	-xi-	.	4f/	-xi-	.	4a/	-xi-	.
.	.	4F\	-sti,	.	4c\	-sti	.	4f/	-sti	.	4a/	-sti,	.
4r	4r	4r	.	.	4r	.	.	4r	.	.	4r	.	.
!	!	!	!	!	!LO:LB:g=original	!	!	!	!	!	!	!	!
=9	=9	=9	=9	=9	=9	=9	=9	=9	=9	=9	=9	=9	=9
!	!	!	!	!LO:DY:a:rj	!	!	!LO:DY:b:rj	!	!	!	!	!	!
8r	8r	8r	.	pp	8r	.	pp	8r	.	.	8r	.	.
[>8c [>8F\	[>8a-X [<8f/	8F\	in-	.	8c\	in-	.	8f/	in-	.	8a-X/	in-	.
2c] 2F\]	2a-] 2f/]	2F\	-cer-	.	2c\	-cer-	.	2f/	-cer-	.	2a-/	-cer-	.
=10	=10	=10	=10	=10	=10	=10	=10	=10	=10	=10	=10	=10	=10
*^	*	*	*	*	*	*	*	*	*	*	*	*	*
2c/	2F\	2a-X 2f/	2F\	-ta	.	2c\	-ta	.	2f/	-ta	.	2a-X/	-ta	.
8c/L	4E-X\	4a-X 4g-X/	8E-X\	et	.	8c\	et	.	8g-X/	et	.	8a-/	et	.
8c/J	.	.	8E-\	oc-	.	8c\	oc-	.	8g-/	oc-	.	8a-/	oc-	.
*v	*v	*	*	*	*	*	*	*	*	*	*	*	*	*
=11	=11	=11	=11	=11	=11	=11	=11	=11	=11	=11	=11	=11	=11
!	!	!	!	!	!	!	!	!	!	!	!LO:SIC:s=4a-:v	!	!
!	!	!	!	!	!	!	!	!LO:SIC:s=4a-:v	!	!	!	!	!
[>2c [<2E-X\	4a-X 4e-X/	4E-X\	-cul-	.	4c\	-cul-	.	4g-X/	-cul-	.	4a/	-cul-	.
.	16qqcc/LL	.	.	.	.	.	.	.	.	.	(<16qqcc/LL	.	.
!	!	!	!	!	!	!	!	!	!	!	!LO:SIC:s=4a-:v	!	!
.	16qqb-/JJ	.	.	.	.	.	.	.	.	.	16qqb-/JJ	.	.
.	4.a- 4.g-X/	4.E-\	-ta	.	4.c\	-ta	.	4.g-/	-ta	.	4.a/)	-ta	.
8c]L 8E-\]	.	.	.	.	.	.	.	.	.	.	.	.	.
!	!	!	!	!LO:DY:a:rj	!	!	!LO:DY:b:rj	!	!	!	!LO:SIC:s=8a-:v	!	!
8A-X\J	8a-/	8A-X\	in-	ff	8A-X\	in-	ff	8a-X/	in-	.	8a/	in-	.
!	!	!LO:LB:g=original	!	!	!	!	!	!LO:LB:g=original	!	!	!	!	!
=12	=12	=12	=12	=12	=12	=12	=12	=12	=12	=12	=12	=12	=12
!	!	!	!	!	!	!	!	!	!	!LO:DY:a:rj	!	!	!
4d-X 4D-X\	4ff 4a-X\	4D-X/	-cer-	.	4d-X\	-cer-	.	4a-X/	-cer-	fp	4ff\	-cer-	.
4c 4F\	4ee-X 4an\	4F\	-ta	.	4c\	-ta	.	4an/	-ta	.	4ee-X\	-ta	.
!	!	!	!	!LO:DY:a:rj	!	!	!LO:DY:b:rj	!	!	!	!	!	!
4F\	4f/	8F\	et	pp	8F/	et	pp	8f/	et	.	8f/	et	.
.	.	8F\	oc-	.	8F/	oc-	.	8f/	oc-	.	8f/	oc-	.
!	!	!	!	!	!	!	!	!	!	!	!LO:LB:g=original	!	!
=13	=13	=13	=13	=13	=13	=13	=13	=13	=13	=13	=13	=13	=13
*	*^	*	*	*	*	*	*	*	*	*	*	*	*
4B-\	4dd-X/	2.f\	4B-\	-cul-	.	4B-\	-cu-	.	4f/	-cul-	.	4dd-X\	-cul-	.
2c 2A-X\	2cc/	.	4A-X\	-ta	.	4c\	-ta	.	4f/	-ta	.	4cc\	-ta	.
!	!	!	!	!	!LO:HP:a	!	!	!	!	!	!	!	!	!
.	.	.	8A-\	Sa-	<	8c\	sa-	.	8f/	sa-	.	8cc\	ſa-	.
.	.	.	8A-\	-pi-	.	8c\	-pi-	.	8f/	-pi-	.	8cc\	-pi-	.
=14	=14	=14	=14	=14	=14	=14	=14	=14	=14	=14	=14	=14	=14	=14
2.d 2.G\	4.cc/	2.f\	4.G\	-en-	.	4.d\	-en-	.	4.f/	-en-	.	4.cc\	-en-	.
!	!LO:TX:a:t=P:problem=w żródle kasownik dopisany ołówkiem	!	!	!	!	!	!	!	!	!	!	!	!	!
.	8bn/	.	8G\	-ti-	.	8d\	-ti-	.	8f/	-ti-	.	8bn\	-ti-	.
.	4b/	.	4G\	-ae	.	4d\	-ae	.	4f/	-e	.	4b\	-ae	.
!LO:LB:g=original	!LO:LB:g=original	!	!	!	!	!LO:LB:g=original	!	!	!	!	!	!	!	!
=15	=15	=15	=15	=15	=15	=15	=15	=15	=15	=15	=15	=15	=15	=15
4c\	8cc/L	4g\	4c\	tu-	.	4c\	tu-	.	4e/	tu-	.	8cc\L	tu-	.
.	8b-X/J	.	.	.	.	.	.	.	.	.	.	8b-X\J	.	.
4C/	4b- 4g 4e/	4ryy	4C/	-ae	.	4e\	-e	.	4g/	-ae	.	4b-/	-ae,	.
!	!	!	!LO:TX:b:Bi:t=V.S.	!	!	!	!	!	!LO:TX:b:Bi:t=VS.	!	!	!	!	!
4r	4r	4ryy	4r	.	.	4r	.	.	4r	.	.	4r	.	.
!	!	!	!LO:PB:g=original	!	!	!	!	!	!LO:PB:g=original	!	!	!	!	!
*	*v	*v	*	*	*	*	*	*	*	*	*	*	*	*
=16	=16	=16	=16	=16	=16	=16	=16	=16	=16	=16	=16	=16	=16
*^	*	*	*	*	*	*	*	*	*	*	*	*	*
!	!	!	!	!	!LO:DY:b:rj	!	!	!LO:DY:a:rj	!	!	!	!	!	!LO:DY:a:rj
2c/	4F\	4a 4f/	4F\	ma-	p	4c\	ma-	p	4f/	ma-	.	4a/	ma-	p
!	!	!	!	!	!	!LO:TX:a:Bi:t=dol	!	!	!	!	!	!	!	!
.	4G\	4b-X 4en/	4G\	-ni-	.	4c\	-ni-	.	4e/	-ni-	.	4b-/	-ni-	.
4e-X/	4A\	4cc 4f/	4A\	-fes-	.	4f\	-fes-	.	4e-X/	-fe-	.	4cc/	-fes-	.
*v	*v	*	*	*	*	*	*	*	*	*	*	*	*	*
=17	=17	=17	=17	=17	=17	=17	=17	=17	=17	=17	=17	=17	=17
*	*^	*	*	*	*	*	*	*	*	*	*	*	*
8e-XL 8A\	8cc#X/L	2f\	8A\L	-ta-	.	4f\	-[[s]]tas-	.	8e/L	-sta-	.	(>8cc#X\L	-[[s]]tas-	.
8fJ 8B-\	8dd/J	.	8B-\J	.	.	.	.	.	8d/J	.	.	8dd\J)	.	.
4f 4B-\	4dd/	.	4B-\	-sti	.	4f\	-[[s]]ti	.	4d/	-sti	.	4dd\	-ti.	.
4r	4r	4ryy	4r	.	.	4r	.	.	4r	.	.	4r	.	.
!	!	!	!	!	!	!	!	!	!	!	!	!LO:PB:g=original	!	!
=18	=18	=18	=18	=18	=18	=18	=18	=18	=18	=18	=18	=18	=18	=18
*^	*	*	*	*	*	*	*	*	*	*	*	*	*	*
(>2f/	[<2c\	4r	2.g\	2.c\	mi-	.	(>2f\	mi-	.	2.g/	mi-	.	4r	.	.
.	.	2cc/	.	.	.	.	.	.	.	.	.	.	2ccn\	mi-	.
4e/)	4c\]	.	.	.	.	.	4e\	.	.	.	.	.	.	.	.
*v	*v	*	*	*	*	*	*	*	*	*	*	*	*	*	*
*	*v	*v	*	*	*	*	*	*	*	*	*	*	*	*
=19	=19	=19	=19	=19	=19	=19	=19	=19	=19	=19	=19	=19	=19
!	!	!	!	!	!	!	!	!	!	!	!LO:TX:t=P:problem=korekta dźwięku [2cc]	!	!
!	!	!	!	!	!	!	!	!	!	!	!LO:TX:a:t=a	!	!
2c 2F\	2a 2f\	2F\	-hi	.	2c\)	-hi,	.	2f/	-hi	.	2a\	-hi	.
4r	4r	4r	.	.	4r	.	.	4r	.	.	4r	.	.
=20	=20	=20	=20	=20	=20	=20	=20	=20	=20	=20	=20	=20	=20
*	*^	*	*	*	*	*	*	*	*	*	*	*	*
4c 4E-X\	2.ff/	4a\	4E-X\	ma-	.	4c\	ma-	.	4a/	ma-	.	4ff\	ma-	.
4B- 4D\	.	4b-\	4D/	-ni-	.	4B-\	-ni-	.	4b-/	-ni-	.	4ff\	-ni-	.
4D-X\	.	4bn 4f\	4D-X/	-fe-	.	4f\	-fes-	.	4bn/	-fes-	.	4ff\	-fes-	.
=21	=21	=21	=21	=21	=21	=21	=21	=21	=21	=21	=21	=21	=21	=21
!	!	!	!	!	!LO:DY:a:rj	!	!	!LO:DY:a:rj	!LO:TX:t=P:4\right:problem	!	!	!	!	!
2.F 2.C\	4.aa/	4cc\	2C/	-sta-	ff	2f\	-tas-	f	(>4cc\	-[[s]]tas-	.	(>4aa\	-[[s]]tas-	.
.	.	4a\	.	.	.	.	.	.	4a/)	.	.	8aa\L	.	.
.	8ff/	.	.	.	.	.	.	.	.	.	.	8ff\J)	.	.
.	8cc/L	8a\L	4C/	-sti	.	4f\	-[[s]]ti	.	8a/L	-ti	.	(<8cc/L	-[[s]]ti	.
.	8a/J	8f\J	.	.	.	.	.	.	8f/J	.	.	8a/J)	.	.
!LO:LB:g=original	!LO:LB:g=original	!	!	!	!	!	!	!	!	!	!	!	!	!
=22	=22	=22	=22	=22	=22	=22	=22	=22	=22	=22	=22	=22	=22	=22
*^	*	*	*	*	*	*	*	*	*	*	*	*	*	*
2c/	2.C\	2.g/	4f\	2.C/	mi-	.	(>2c\	mi-	.	4f/	mi-	.	2.g/	mi-	.
.	.	.	2en\	.	.	.	.	.	.	2e/	.	.	.	.	.
4B-/	.	.	.	.	.	.	4B-\	.	.	.	.	.	.	.	.
*v	*v	*	*	*	*	*	*	*	*	*	*	*	*	*	*
*	*v	*v	*	*	*	*	*	*	*	*	*	*	*	*
=23	=23	=23	=23	=23	=23	=23	=23	=23	=23	=23	=23	=23	=23
2A 2F\	2f 2c/	2F\	-hi	.	2A\)	-hi.	.	2f/	-hi	.	2f/	-hi.	.
4r	4r	4r	.	.	4r	.	.	4r	.	.	4r	.	.
==	==	==	==	==	==	==	==	==	==	==	==	==	==
*-	*-	*-	*-	*-	*-	*-	*-	*-	*-	*-	*-	*-	*-
!!!system-decoration: [(s1,s2,s3,s4)][(s5,s6)]
!!!RDF**kern: > = above
!!!RDF**kern: < = below
!!!RDF**dynam: < = "cres.", fontstyle= "bold-italic"
!!!EED: Wojciech Jakubiak-Danek
!!!EEV: 2021-01-03
!!!ENC: Krzysztof Stępień
!!!END: 2021-01-01
!!!YEC: Copyright 2022 Narodowy Instytut Fryderyka Chopina (https://polishscores.org)
!!!YEM: License CC-BY-4.0 (https://creativecommons.org/licenses/by/4.0)
